Numix-Light/16x16/status/transmission-tray-icon.svg

<?xml version="1.0" encoding="UTF-8" standalone="no"?>
<svg
   xmlns:dc="http://purl.org/dc/elements/1.1/"
   xmlns:cc="http://creativecommons.org/ns#"
   xmlns:rdf="http://www.w3.org/1999/02/22-rdf-syntax-ns#"
   xmlns:svg="http://www.w3.org/2000/svg"
   xmlns="http://www.w3.org/2000/svg"
   xmlns:sodipodi="http://sodipodi.sourceforge.net/DTD/sodipodi-0.dtd"
   xmlns:inkscape="http://www.inkscape.org/namespaces/inkscape"
   width="16"
   height="16"
   viewBox="0 0 16 16"
   id="svg2997"
   version="1.1"
   inkscape:version="0.48.5 r10040"
   sodipodi:docname="transmission-tray-icon.svg">
  <metadata
     id="metadata3009">
    <rdf:RDF>
      <cc:Work
         rdf:about="">
        <dc:format>image/svg+xml</dc:format>
        <dc:type
           rdf:resource="http://purl.org/dc/dcmitype/StillImage" />
      </cc:Work>
    </rdf:RDF>
  </metadata>
  <defs
     id="defs3007" />
  <sodipodi:namedview
     pagecolor="#ffffff"
     bordercolor="#666666"
     borderopacity="1"
     objecttolerance="10"
     gridtolerance="10"
     guidetolerance="10"
     inkscape:pageopacity="0"
     inkscape:pageshadow="2"
     inkscape:window-width="640"
     inkscape:window-height="480"
     id="namedview3005"
     showgrid="false"
     inkscape:zoom="14.75"
     inkscape:cx="8"
     inkscape:cy="8"
     inkscape:window-x="0"
     inkscape:window-y="0"
     inkscape:window-maximized="0"
     inkscape:current-layer="svg2997" />
  <path
     style="fill:#353535;fill-opacity:1"
     inkscape:connector-curvature="0"
     id="path3003"
     d="m 8,2.183594 -3.636719,3.230468 2.425781,0 0,5.171876 -2.425781,0 L 8,13.816406 l 3.636719,-3.230468 -2.425781,0 0,-5.171876 2.425781,0 z" />
</svg>

<svg xmlns="http://www.w3.org/2000/svg" width="16" height="16" viewBox="0 0 16 16">
 <g>
  <path d="M 8 2.910156 L 4.363281 6.140625 L 6.789062 6.140625 L 6.789062 11.3125 L 4.363281 11.3125 L 8 14.546875 L 11.636719 11.3125 L 9.210938 11.3125 L 9.210938 6.140625 L 11.636719 6.140625 Z " fill-opacity="0.302"/>
  <path d="M 8 2.183594 L 4.363281 5.414062 L 6.789062 5.414062 L 6.789062 10.585938 L 4.363281 10.585938 L 8 13.816406 L 11.636719 10.585938 L 9.210938 10.585938 L 9.210938 5.414062 L 11.636719 5.414062 Z " fill="#353535"/>
 </g>
</svg>
